;FLAVOR:Marlin
;TIME:5772
;Filament used: 4.09528m
;Layer height: 0.15
;Generated with Cura_SteamEngine 3.2.1
M82 ;absolute extrusion mode
G21 ; set units to millimeters
G90 ; use absolute positioning
M82 ; absolute extrusion mode
M104 S215 ; set extruder temp
M140 S60 ; set bed temp
M190 S60 ; wait for bed temp
M109 S215 ; wait for extruder temp
G28 W ; home all without mesh bed level
G80 ; mesh bed leveling
G92 E0.0 ; reset extruder distance position
G1 Y-3.0 F1000.0 ; go outside print area
G1 X60.0 E9.0 F1000.0 ; intro line
G1 X100.0 E21.5 F1000.0 ; intro line
G92 E0.0 ; reset extruder distance position
;LAYER_COUNT:267
;LAYER:0
M107
G0 F3600 X142.742 Y96.214 Z0.15
;TYPE:SUPPORT
G1 F1800 X142.98 Y96.136 E0.00632
G1 X143.44 Y95.944 E0.0189
G1 X148.65 Y95.945 E0.15036
G1 X148.825 Y96.121 E0.15662
G1 X150.382 Y96.125 E0.19591
G1 X149.781 Y97.106 E0.22494
G1 X149.746 Y97.534 E0.23577
G1 X149.645 Y97.997 E0.24773
G1 X149.602 Y98.652 E0.26429
G1 X149.69 Y99.492 E0.28561
G1 X149.919 Y100.171 E0.30369
G1 X150.211 Y100.765 E0.32039
G1 X150.702 Y101.444 E0.34153
G1 X151.178 Y101.882 E0.35785
G1 X151.798 Y102.309 E0.37685
G1 X152.426 Y102.595 E0.39426
G1 X153.195 Y102.785 E0.41425
G1 X153.856 Y102.841 E0.43099
G1 X154.562 Y102.784 E0.44886
G1 X155.262 Y102.605 E0.46709
G1 X155.93 Y102.29 E0.48573
G1 X156.536 Y101.869 E0.50434
G1 X157.03 Y101.396 E0.5216
G1 X157.461 Y100.84 E0.53935
G1 X157.784 Y100.196 E0.55753
G1 X158.012 Y99.468 E0.57678
G1 X158.109 Y98.677 E0.59689
G1 X158.052 Y97.906 E0.6164
G1 X157.871 Y97.187 E0.63511
G1 X157.397 Y96.113 E0.66473
G1 X161.126 Y96.111 E0.75882
G1 X161.298 Y96.284 E0.76498
G1 X164.951 Y96.292 E0.85715
G1 X164.951 Y118.139 E1.40841
G1 X164.749 Y118.223 E1.41393
G1 X163.39 Y118.223 E1.44822
G1 X163.222 Y118.392 E1.45423
G1 X157.245 Y118.365 E1.60505
G1 X157.686 Y117.573 E1.62792
G1 X157.917 Y117.043 E1.64251
G1 X158.06 Y116.408 E1.65894
G1 X158.147 Y115.046 E1.69337
G1 X157.623 Y113.79 E1.72771
G1 X157.279 Y113.233 E1.74423
G1 X156.779 Y112.666 E1.76331
G1 X156.256 Y112.246 E1.78023
G1 X155.594 Y111.865 E1.7995
G1 X154.96 Y111.653 E1.81637
G1 X154.197 Y111.514 E1.83594
G1 X153.5 Y111.514 E1.85353
G1 X152.782 Y111.636 E1.87191
G1 X152.104 Y111.869 E1.89
G1 X151.436 Y112.254 E1.90945
G1 X150.943 Y112.657 E1.92552
G1 X150.452 Y113.215 E1.94427
G1 X150.066 Y113.831 E1.96261
G1 X149.777 Y114.475 E1.98043
G1 X149.634 Y115.246 E2.00021
G1 X149.602 Y115.652 E2.01049
G1 X149.612 Y116.048 E2.02048
G1 X149.696 Y116.59 E2.03432
G1 X149.931 Y117.585 E2.06012
G1 X150.422 Y118.233 E2.08063
G1 X148.328 Y118.236 E2.13347
G1 X142.878 Y118.222 E2.27099
G1 X142.858 Y118.192 E2.2719
G1 X142.741 Y118.145 E2.27508
G1 X142.742 Y96.214 E2.82846
G0 F3600 X143.964 Y96.105
G1 F1800 X143.964 Y118.063 E3.38252
G0 F3600 X142.902 Y117.304
G1 F1800 X149.701 Y117.304 E3.55407
G0 F3600 X149.296 Y118.072
G1 F1800 X149.296 Y96.283 E4.10387
G0 F3600 X149.441 Y98.642
G1 F1800 X142.902 Y98.642 E4.26886
G0 F3600 X142.902 Y101.308
G1 F1800 X150.407 Y101.308 E4.45823
G0 F3600 X151.962 Y102.56
G1 F1800 X151.962 Y111.766 E4.69053
G0 F3600 X151.603 Y111.972
G1 F1800 X142.902 Y111.972 E4.91008
G0 F3600 X142.902 Y109.306
G1 F1800 X164.791 Y109.306 E5.46239
G0 F3600 X164.791 Y106.64
G1 F1800 X142.902 Y106.64 E6.01471
G0 F3600 X142.902 Y103.974
G1 F1800 X164.791 Y103.974 E6.56703
G0 F3600 X164.791 Y101.308
G1 F1800 X157.3 Y101.308 E6.75605
G0 F3600 X157.294 Y101.315
G1 F1800 X157.294 Y113.006 E7.05104
G0 F3600 X156.101 Y111.972
G1 F1800 X164.791 Y111.972 E7.27031
G0 F3600 X164.791 Y114.638
G1 F1800 X158.15 Y114.638 E7.43788
G0 F3600 X157.977 Y117.304
G1 F1800 X164.791 Y117.304 E7.60982
G0 F3600 X162.626 Y118.229
G1 F1800 X162.626 Y96.448 E8.15941
G0 F3600 X159.96 Y96.271
G1 F1800 X159.96 Y118.217 E8.71317
G0 F3600 X154.628 Y111.429
G1 F1800 X154.628 Y102.931 E8.92759
G0 F3600 X158.267 Y98.642
G1 F1800 X164.791 Y98.642 E9.09221
G0 F3600 X146.63 Y96.105
G1 F1800 X146.63 Y118.068 E9.6464
G0 F3600 X149.583 Y114.638
G1 F1800 X142.902 Y114.638 E9.81498
G1 F2100 E9.01498
G0 F3600 X143.355 Y94.254
G0 X143.355 Y92.975
G0 X164.281 Y92.919
G0 X164.351 Y92.989
;TYPE:WALL-INNER
G1 F2100 E9.81498
G1 F1800 X143.341 Y92.989 E10.34511
G1 X143.341 Y72.836 E10.85363
G1 X164.351 Y72.836 E11.38376
G1 X164.351 Y92.989 E11.89228
G0 F3600 X164.281 Y92.919
G0 X153.402 Y83.362
G0 X151.55 Y81.662
G0 X151.634 Y81.61
G1 F1800 X151.9 Y81.964 E11.90345
G1 X152.218 Y82.269 E11.91457
G1 X152.586 Y82.517 E11.92577
G1 X152.99 Y82.697 E11.93693
G1 X153.416 Y82.808 E11.94803
G1 X153.857 Y82.846 E11.9592
G1 X154.3 Y82.806 E11.97043
G1 X154.728 Y82.693 E11.9816
G1 X155.129 Y82.511 E11.99271
G1 X155.497 Y82.263 E12.00391
G1 X155.814 Y81.955 E12.01506
G1 X156.077 Y81.6 E12.02621
G1 X156.275 Y81.205 E12.03736
G1 X156.405 Y80.781 E12.04855
G1 X156.46 Y80.342 E12.05971
G1 X156.439 Y79.9 E12.07087
G1 X156.346 Y79.468 E12.08203
G1 X156.18 Y79.057 E12.09321
G1 X155.946 Y78.681 E12.10438
G1 X155.655 Y78.35 E12.11551
G1 X155.309 Y78.072 E12.1267
G1 X154.922 Y77.858 E12.13786
G1 X154.506 Y77.711 E12.149
G1 X154.086 Y77.639 E12.15975
G1 X153.849 Y77.63 E12.16573
G1 X153.613 Y77.641 E12.17169
G1 X153.19 Y77.714 E12.18253
G1 X152.774 Y77.862 E12.19367
G1 X152.387 Y78.079 E12.20486
G1 X152.045 Y78.357 E12.21598
G1 X151.754 Y78.689 E12.22712
G1 X151.521 Y79.067 E12.23833
G1 X151.357 Y79.479 E12.24952
G1 X151.266 Y79.911 E12.26066
G1 X151.247 Y80.353 E12.27182
G1 X151.305 Y80.792 E12.28299
G1 X151.435 Y81.214 E12.29413
G1 X151.634 Y81.61 E12.30532
G0 F3600 X151.975 Y81.398
;TYPE:WALL-OUTER
G1 F1800 X152.2 Y81.698 E12.31478
G1 X152.47 Y81.956 E12.3242
G1 X152.781 Y82.166 E12.33367
G1 X153.123 Y82.318 E12.34311
G1 X153.484 Y82.412 E12.35253
G1 X153.857 Y82.444 E12.36197
G1 X154.231 Y82.411 E12.37145
G1 X154.593 Y82.315 E12.3809
G1 X154.933 Y82.161 E12.39032
G1 X155.244 Y81.951 E12.39978
G1 X155.512 Y81.691 E12.40921
G1 X155.735 Y81.39 E12.41866
G1 X155.902 Y81.056 E12.42808
G1 X156.012 Y80.697 E12.43756
G1 X156.059 Y80.326 E12.44699
G1 X156.041 Y79.952 E12.45644
G1 X155.962 Y79.586 E12.46589
G1 X155.822 Y79.239 E12.47533
G1 X155.624 Y78.92 E12.4848
G1 X155.378 Y78.64 E12.49421
G1 X155.085 Y78.405 E12.50368
G1 X154.758 Y78.224 E12.51312
G1 X154.405 Y78.1 E12.52256
G1 X154.044 Y78.038 E12.5318
G1 X153.85 Y78.03 E12.5367
G1 X153.657 Y78.039 E12.54157
G1 X153.292 Y78.102 E12.55092
G1 X152.94 Y78.227 E12.56034
G1 X152.613 Y78.411 E12.56981
G1 X152.323 Y78.646 E12.57923
G1 X152.077 Y78.927 E12.58865
G1 X151.88 Y79.247 E12.59814
G1 X151.741 Y79.595 E12.60759
G1 X151.664 Y79.961 E12.61703
G1 X151.648 Y80.335 E12.62647
G1 X151.697 Y80.706 E12.63592
G1 X151.807 Y81.064 E12.64537
G1 X151.975 Y81.398 E12.6548
G0 F3600 X152.095 Y81.558
G0 X151.695 Y81.858
G0 X164.281 Y92.919
G0 X164.751 Y93.389
G1 F1800 X142.941 Y93.389 E13.20512
G1 X142.941 Y72.436 E13.73382
G1 X164.751 Y72.436 E14.28415
G1 X164.751 Y93.389 E14.81285
G0 F3600 X164.551 Y93.389
G0 X164.281 Y92.919
G0 X163.961 Y92.599
;TYPE:SKIN
G1 F1800 X143.731 Y92.599 E15.3233
G1 X143.731 Y73.226 E15.81214
G1 X163.961 Y73.226 E16.32259
G1 X163.961 Y92.599 E16.81143
G0 F3600 X155.744 Y82.567
G1 F1800 X156.109 Y82.212 E16.82427
G1 X156.41 Y81.805 E16.83705
G1 X156.638 Y81.351 E16.84987
G1 X156.787 Y80.863 E16.86274
G1 X156.852 Y80.357 E16.87561
G1 X156.827 Y79.849 E16.88845
G1 X156.72 Y79.353 E16.90125
G1 X156.529 Y78.88 E16.91412
G1 X156.26 Y78.447 E16.92698
G1 X155.926 Y78.067 E16.93975
G1 X155.527 Y77.747 E16.95265
G1 X155.082 Y77.501 E16.96548
G1 X154.605 Y77.332 E16.97825
G1 X154.127 Y77.251 E16.99049
G1 X153.847 Y77.24 E16.99756
G1 X153.57 Y77.253 E17.00455
G1 X153.091 Y77.336 E17.01682
G1 X152.612 Y77.505 E17.02964
G1 X152.167 Y77.755 E17.04252
G1 X151.774 Y78.075 E17.05531
G1 X151.44 Y78.457 E17.06811
G1 X151.172 Y78.891 E17.08098
G1 X150.982 Y79.366 E17.09389
G1 X150.878 Y79.862 E17.10668
G1 X150.855 Y80.37 E17.11951
G1 X150.923 Y80.876 E17.13239
G1 X151.072 Y81.36 E17.14517
G1 X151.301 Y81.817 E17.15807
G1 X151.607 Y82.224 E17.17091
G1 X151.972 Y82.573 E17.18366
G1 X152.397 Y82.86 E17.1966
G1 X152.861 Y83.066 E17.20941
G1 X153.35 Y83.194 E17.22216
G1 X153.857 Y83.238 E17.235
G1 X154.368 Y83.192 E17.24795
G1 X154.859 Y83.062 E17.26076
G1 X155.32 Y82.852 E17.27355
G1 X155.744 Y82.567 E17.28644
G0 F3600 X163.78 Y73.836
G1 F1800 X163.35 Y73.406 E17.30178
G0 F3600 X162.784 Y73.406
G1 F1800 X163.78 Y74.401 E17.33731
G1 X163.85 Y74.471
G0 F3600 X163.78 Y74.967
G1 F1800 X162.218 Y73.406 E17.39303
G1 X162.148 Y73.336
G0 F3600 X161.653 Y73.406
G1 F1800 X163.78 Y75.533 E17.46893
G1 X163.85 Y75.603
G0 F3600 X163.78 Y76.098
G1 F1800 X161.087 Y73.406 E17.56501
G1 X161.017 Y73.336
G0 F3600 X160.521 Y73.406
G1 F1800 X163.78 Y76.664 E17.68129
G1 X163.85 Y76.734
G0 F3600 X163.78 Y77.23
G1 F1800 X159.956 Y73.406 E17.81774
G1 X159.886 Y73.336
G0 F3600 X159.39 Y73.406
G1 F1800 X163.78 Y77.795 E17.97438
G1 X163.85 Y77.865
G0 F3600 X163.78 Y78.361
G1 F1800 X158.824 Y73.406 E18.15121
G1 X158.754 Y73.336
G0 F3600 X158.258 Y73.406
G1 F1800 X163.78 Y78.927 E18.34824
G1 X163.85 Y78.997
G0 F3600 X163.78 Y79.492
G1 F1800 X157.693 Y73.406 E18.56544
G1 X157.623 Y73.336
G0 F3600 X157.127 Y73.406
G1 F1800 X163.78 Y80.058 E18.80283
G1 X163.85 Y80.128
G0 F3600 X163.78 Y80.624
G1 F1800 X156.561 Y73.406 E19.06041
G1 X156.491 Y73.336
G0 F3600 X155.996 Y73.406
G1 F1800 X163.78 Y81.19 E19.33818
G1 X163.85 Y81.26
G0 F3600 X163.78 Y81.755
G1 F1800 X155.43 Y73.406 E19.63613
G1 X155.36 Y73.336
G0 F3600 X154.864 Y73.406
G1 F1800 X163.78 Y82.321 E19.95427
G1 X163.85 Y82.391
G0 F3600 X163.78 Y82.887
G1 F1800 X154.299 Y73.406 E20.29259
G1 X154.229 Y73.336
G0 F3600 X153.733 Y73.406
G1 F1800 X163.78 Y83.452 E20.6511
G1 X163.85 Y83.522
G0 F3600 X163.78 Y84.018
G1 F1800 X153.167 Y73.406 E21.0298
G1 X153.097 Y73.336
G0 F3600 X152.602 Y73.406
G1 F1800 X163.78 Y84.584 E21.42868
G1 X163.85 Y84.654
G0 F3600 X163.78 Y85.149
G1 F1800 X152.036 Y73.406 E21.84774
G1 X151.966 Y73.336
G0 F3600 X151.47 Y73.406
G1 F1800 X155.806 Y77.741 E22.00245
G1 X155.876 Y77.811
G0 F3600 X156.402 Y78.338
G1 F1800 X163.78 Y85.715 E22.26571
G1 X163.85 Y85.785
G0 F3600 X163.78 Y86.281
G1 F1800 X156.916 Y79.417 E22.51065
G1 X156.846 Y79.347
G0 F3600 X157.018 Y80.084
G1 F1800 X163.78 Y86.846 E22.75194
G1 X163.85 Y86.916
G0 F3600 X163.78 Y87.412
G1 F1800 X156.996 Y80.629 E22.99401
G1 X156.926 Y80.559
G0 F3600 X156.901 Y81.099
G1 F1800 X163.78 Y87.978 E23.23948
G1 X163.85 Y88.048
G0 F3600 X163.78 Y88.543
G1 F1800 X156.754 Y81.518 E23.49018
G1 X156.684 Y81.448
G0 F3600 X156.565 Y81.894
G1 F1800 X163.78 Y89.109 E23.74764
G1 X163.85 Y89.179
G0 F3600 X163.78 Y89.675
G1 F1800 X156.325 Y82.22 E24.01367
G1 X156.255 Y82.15
G0 F3600 X156.054 Y82.515
G1 F1800 X163.78 Y90.24 E24.28935
G1 X163.85 Y90.31
G0 F3600 X163.78 Y90.806
G1 F1800 X155.752 Y82.778 E24.57582
G1 X155.682 Y82.708
G0 F3600 X155.413 Y83.005
G1 F1800 X163.78 Y91.372 E24.87439
G1 X163.85 Y91.442
G0 F3600 X163.78 Y91.938
G1 F1800 X155.026 Y83.184 E25.18678
G1 X154.956 Y83.114
G0 F3600 X154.595 Y83.319
G1 F1800 X163.695 Y92.418 E25.51149
G1 X163.765 Y92.488
G0 F3600 X163.129 Y92.418
G1 F1800 X154.107 Y83.396 E25.83343
G1 X154.037 Y83.326
G0 F3600 X153.536 Y83.391
G1 F1800 X162.563 Y92.418 E26.15555
G1 X162.633 Y92.488
G0 F3600 X161.998 Y92.418
G1 F1800 X152.821 Y83.242 E26.48301
G1 X152.751 Y83.172
G0 F3600 X150.858 Y81.279
G1 F1800 X143.91 Y74.331 E26.73094
G1 X143.84 Y74.261
G0 F3600 X143.91 Y74.896
G1 F1800 X161.432 Y92.418 E27.35621
G1 X161.502 Y92.488
G0 F3600 X160.866 Y92.418
G1 F1800 X143.91 Y75.462 E27.96127
G1 X143.84 Y75.392
G0 F3600 X143.91 Y76.028
G1 F1800 X160.301 Y92.418 E28.54615
G1 X160.371 Y92.488
G0 F3600 X159.735 Y92.418
G1 F1800 X143.91 Y76.593 E29.11086
G1 X143.84 Y76.523
G0 F3600 X143.91 Y77.159
G1 F1800 X159.169 Y92.418 E29.65537
G1 X159.239 Y92.488
G0 F3600 X158.604 Y92.418
G1 F1800 X143.91 Y77.725 E30.1797
G1 X143.84 Y77.655
G0 F3600 X143.91 Y78.29
G1 F1800 X158.038 Y92.418 E30.68384
G1 X158.108 Y92.488
G0 F3600 X157.472 Y92.418
G1 F1800 X143.91 Y78.856 E31.1678
G1 X143.84 Y78.786
G0 F3600 X143.91 Y79.422
G1 F1800 X156.906 Y92.418 E31.63155
G1 X156.976 Y92.488
G0 F3600 X156.341 Y92.418
G1 F1800 X143.91 Y79.987 E32.07514
G1 X143.84 Y79.917
G0 F3600 X143.91 Y80.553
G1 F1800 X155.775 Y92.418 E32.49854
G1 X155.845 Y92.488
G0 F3600 X155.209 Y92.418
G1 F1800 X143.91 Y81.119 E32.90173
G1 X143.84 Y81.049
G0 F3600 X143.91 Y81.684
G1 F1800 X154.644 Y92.418 E33.28477
G1 X154.714 Y92.488
G0 F3600 X154.078 Y92.418
G1 F1800 X143.91 Y82.25 E33.64761
G1 X143.84 Y82.18
G0 F3600 X143.91 Y82.816
G1 F1800 X153.512 Y92.418 E33.99025
G1 X153.582 Y92.488
G0 F3600 X152.947 Y92.418
G1 F1800 X143.91 Y83.382 E34.31271
G1 X143.84 Y83.312
G0 F3600 X143.91 Y83.947
G1 F1800 X152.381 Y92.418 E34.61499
G1 X152.451 Y92.488
G0 F3600 X151.815 Y92.418
G1 F1800 X143.91 Y84.513 E34.89708
G1 X143.84 Y84.443
G0 F3600 X143.91 Y85.079
G1 F1800 X151.25 Y92.418 E35.15898
G1 X151.32 Y92.488
G0 F3600 X150.684 Y92.418
G1 F1800 X143.91 Y85.644 E35.40071
G1 X143.84 Y85.574
G0 F3600 X143.91 Y86.21
G1 F1800 X150.118 Y92.418 E35.62224
G1 X150.188 Y92.488
G0 F3600 X149.553 Y92.418
G1 F1800 X143.91 Y86.776 E35.82359
G1 X143.84 Y86.706
G0 F3600 X143.91 Y87.341
G1 F1800 X148.987 Y92.418 E36.00476
G1 X149.057 Y92.488
G0 F3600 X148.421 Y92.418
G1 F1800 X143.91 Y87.907 E36.16573
G1 X143.84 Y87.837
G0 F3600 X143.91 Y88.473
G1 F1800 X147.856 Y92.418 E36.30652
G1 X147.926 Y92.488
G0 F3600 X147.29 Y92.418
G1 F1800 X143.91 Y89.038 E36.42713
G1 X143.84 Y88.968
G0 F3600 X143.91 Y89.604
G1 F1800 X146.724 Y92.418 E36.52755
G1 X146.794 Y92.488
G0 F3600 X146.158 Y92.418
G1 F1800 X143.91 Y90.17 E36.60777
G1 X143.84 Y90.1
G0 F3600 X143.91 Y90.735
G1 F1800 X145.593 Y92.418 E36.66782
G1 X145.663 Y92.488
G0 F3600 X145.027 Y92.418
G1 F1800 X143.91 Y91.301 E36.70768
G1 X143.84 Y91.231
G0 F3600 X143.91 Y91.867
G1 F1800 X144.461 Y92.418 E36.72735
G0 F3600 X150.697 Y80.552
G1 F1800 X143.91 Y73.765 E36.96954
G1 X143.84 Y73.695
G0 F3600 X144.116 Y73.406
G1 F1800 X150.692 Y79.981 E37.20418
G1 X150.762 Y80.051
G0 F3600 X150.771 Y79.495
G1 F1800 X144.682 Y73.406 E37.42146
G1 X144.612 Y73.336
G0 F3600 X145.248 Y73.406
G1 F1800 X150.907 Y79.065 E37.6234
G1 X150.977 Y79.135
G0 F3600 X151.089 Y78.681
G1 F1800 X145.813 Y73.406 E37.81165
G1 X145.743 Y73.336
G0 F3600 X146.379 Y73.406
G1 F1800 X151.308 Y78.334 E37.98752
G1 X151.378 Y78.404
G0 F3600 X151.571 Y78.032
G1 F1800 X146.945 Y73.406 E38.1526
G1 X146.875 Y73.336
G0 F3600 X147.51 Y73.406
G1 F1800 X151.868 Y77.764 E38.30811
G1 X151.938 Y77.834
G0 F3600 X152.199 Y77.528
G1 F1800 X148.076 Y73.406 E38.45522
G1 X148.006 Y73.336
G0 F3600 X148.642 Y73.406
G1 F1800 X152.566 Y77.329 E38.59523
G1 X152.636 Y77.399
G0 F3600 X152.983 Y77.182
G1 F1800 X149.208 Y73.406 E38.72995
G1 X149.138 Y73.336
G0 F3600 X149.773 Y73.406
G1 F1800 X153.457 Y77.089 E38.8614
G1 X153.527 Y77.159
G0 F3600 X153.999 Y77.066
G1 F1800 X150.339 Y73.406 E38.992
G1 X150.269 Y73.336
G0 F3600 X150.905 Y73.406
G1 F1800 X154.66 Y77.161 E39.126
G1 X154.73 Y77.231
G1 F2100 E38.326
G0 F3600 X155.978 Y78.658
G0 X156.215 Y79.039
G0 X156.478 Y79.895
G0 X156.46 Y80.401
G0 X155.183 Y92.969
G0 X155.183 Y94.254
G0 X155.183 Y120.084
G0 X155.183 Y121.369
G0 X156.956 Y127.334
G0 X157.024 Y127.87
G0 X157.001 Y128.408
G0 X156.888 Y128.935
G0 X156.686 Y129.437
G0 X156.404 Y129.895
G0 X156.116 Y130.222
G0 X155.183 Y130.96
G0 X155.142 Y130.869
;TYPE:WALL-INNER
G1 F2100 E39.126
G1 F1800 X155.607 Y130.607 E39.13946
G1 X156.021 Y130.272 E39.1529
G1 X156.372 Y129.872 E39.16633
G1 X156.651 Y129.419 E39.17975
G1 X156.85 Y128.924 E39.19321
G1 X156.962 Y128.403 E39.20666
G1 X156.985 Y127.871 E39.2201
G1 X156.917 Y127.342 E39.23356
G1 X156.76 Y126.832 E39.24702
G1 X156.521 Y126.356 E39.26046
G1 X156.202 Y125.927 E39.27395
G1 X155.818 Y125.56 E39.28735
G1 X155.377 Y125.263 E39.30077
G1 X154.892 Y125.043 E39.31421
G1 X154.376 Y124.908 E39.32766
G1 X153.845 Y124.863 E39.34111
G1 X153.313 Y124.908 E39.35458
G1 X152.797 Y125.043 E39.36804
G1 X152.312 Y125.263 E39.38148
G1 X151.871 Y125.562 E39.39492
G1 X151.487 Y125.93 E39.40834
